icons/ocaml-filled.svg

<svg width="256" height="256" viewBox="0 0 256 256" fill="none" xmlns="http://www.w3.org/2000/svg">
<g clip-path="url(#clip0_306_106)">
<rect width="256" height="256" rx="60" fill="url(#paint0_linear_306_106)"/>
<path d="M143.426 232.018C142.879 229.824 143.974 227.08 142.879 224.886C142.331 222.691 140.689 222.691 140.142 221.045C137.952 216.656 135.215 211.718 135.215 206.231C135.215 201.842 133.572 197.453 133.025 193.064C133.025 190.869 133.025 188.674 133.025 186.48C133.025 185.382 133.025 184.285 132.478 183.188C132.478 182.639 132.478 181.542 131.93 181.542L132.478 179.896C132.478 179.347 137.404 179.347 139.047 179.347C141.784 179.347 143.974 179.347 146.711 179.896C152.185 179.896 156.564 179.896 162.039 179.347C173.535 177.701 178.462 172.763 181.199 171.117C191.6 163.985 196.527 151.366 196.527 151.366C198.169 147.525 198.169 140.392 202.001 137.649C206.38 133.809 213.497 134.357 218.424 132.163C221.161 131.065 223.351 129.968 226.635 130.517C228.825 131.065 232.657 133.809 233.752 129.968C233.204 129.419 232.657 128.871 232.109 128.322C236.489 127.773 232.109 118.446 230.467 116.251C227.73 113.508 223.898 111.862 219.519 110.765C214.044 109.119 209.117 107.473 204.191 108.57C195.432 110.216 195.979 105.278 191.052 105.278C185.031 105.278 174.082 105.827 171.892 111.862C170.798 114.605 170.25 114.605 168.608 116.8C167.513 118.446 168.608 120.092 168.06 122.287C167.513 124.481 166.418 132.163 165.323 134.906C163.681 139.295 161.491 144.782 157.659 144.782C152.185 145.33 147.806 145.879 143.426 144.233C140.689 143.136 136.31 141.49 134.12 140.941C123.719 136.552 122.076 132.163 122.076 132.163C120.982 130.517 118.244 127.225 117.15 123.384C116.055 118.995 113.865 115.703 113.318 113.508C112.223 111.314 110.58 107.473 108.938 103.632C106.748 98.6944 104.011 94.8538 101.822 93.2078C98.537 90.4645 95.7999 86.0752 89.2307 87.1725C88.1359 87.1725 83.7565 87.7212 80.4719 90.4645C78.2822 92.1105 77.7348 95.9511 75.545 99.243C74.4502 100.889 72.2605 106.376 70.6182 110.765C69.5233 114.057 68.9759 116.251 67.3336 117.349C66.2388 118.446 65.1439 119.543 63.5016 118.995C62.4068 118.446 61.3119 117.897 60.2171 117.349C58.5748 116.251 55.2902 110.216 53.1005 106.376C51.4582 102.535 47.6262 97.0484 45.4365 94.3051C42.1519 89.9158 40.5097 88.8185 35.5828 88.8185C25.7291 88.8185 24.6343 94.3051 20.2548 102.535C18.0651 106.376 17.5177 111.862 13.6857 116.251C12.0434 118.446 4.92685 128.871 0 130.517V206.231V205.683C0.547428 204.585 0.547428 203.488 1.09486 202.94C3.28457 199.099 7.66399 195.258 9.8537 190.869C10.9486 188.674 12.5908 186.48 13.6857 183.736C14.2331 182.09 14.7806 178.799 15.8754 177.153C16.9703 174.958 19.16 174.409 21.3497 173.861C25.1817 173.312 27.9188 178.799 32.2982 180.993C33.9405 182.09 42.6994 184.834 45.4365 185.382C49.8159 186.48 54.1954 187.028 58.5748 188.126C60.7645 188.674 62.9542 188.674 65.6913 189.223C67.8811 189.223 76.0925 189.772 76.0925 190.32C72.2605 192.515 69.5233 198.002 67.8811 202.391C66.2388 206.78 65.1439 211.718 63.5016 215.559C61.3119 219.948 56.9325 222.143 57.4799 227.629C57.4799 229.824 58.0274 232.018 57.4799 234.213C56.9325 236.956 55.8376 238.602 55.2902 241.346C54.1954 244.638 53.1005 255.062 52.0056 257.805L60.7645 256.708C61.8593 254.513 62.4068 244.638 62.9542 243.54C64.5965 238.602 66.7862 234.762 70.0708 230.921C73.3553 227.08 73.3553 222.691 74.9976 218.302C77.1873 213.364 79.9245 210.072 82.6616 205.683C87.5885 198.002 90.873 187.577 100.727 185.382C101.822 185.382 107.843 189.772 110.58 192.515C113.865 195.807 117.15 199.099 119.339 203.488C123.171 211.718 127.003 223.789 128.098 229.824C128.646 233.664 129.193 233.664 131.93 236.956C133.025 238.054 135.215 242.443 136.31 244.089C136.857 245.735 138.499 249.575 139.047 251.77C139.594 252.867 141.236 256.708 142.331 260H150.543C147.258 250.673 144.521 241.346 143.426 232.018Z" fill="white"/>
</g>
<defs>
<linearGradient id="paint0_linear_306_106" x1="127.705" y1="0.119888" x2="127.705" y2="257.041" gradientUnits="userSpaceOnUse">
<stop stop-color="#F29100"/>
<stop offset="1" stop-color="#EC670F"/>
</linearGradient>
<clipPath id="clip0_306_106">
<rect width="256" height="256" rx="60" fill="white"/>
</clipPath>
</defs>
</svg>

<svg xmlns="http://www.w3.org/2000/svg" width="256" height="256" fill="none"><g clip-path="url(#clip0_306_106)"><rect width="256" height="256" fill="url(#paint0_linear_306_106)" rx="60"/><path fill="#fff" d="M143.426 232.018c-.547-2.194.548-4.938-.547-7.132-.548-2.195-2.19-2.195-2.737-3.841-2.19-4.389-4.927-9.327-4.927-14.814 0-4.389-1.643-8.778-2.19-13.167v-6.584c0-1.098 0-2.195-.547-3.292 0-.549 0-1.646-.548-1.646l.548-1.646c0-.549 4.926-.549 6.569-.549 2.737 0 4.927 0 7.664.549 5.474 0 9.853 0 15.328-.549 11.496-1.646 16.423-6.584 19.16-8.23 10.401-7.132 15.328-19.751 15.328-19.751 1.642-3.841 1.642-10.974 5.474-13.717 4.379-3.84 11.496-3.292 16.423-5.486 2.737-1.098 4.927-2.195 8.211-1.646 2.19.548 6.022 3.292 7.117-.549l-1.643-1.646c4.38-.549 0-9.876-1.642-12.071-2.737-2.743-6.569-4.389-10.948-5.486-5.475-1.646-10.402-3.292-15.328-2.195-8.759 1.646-8.212-3.292-13.139-3.292-6.021 0-16.97.549-19.16 6.584-1.094 2.743-1.642 2.743-3.284 4.938-1.095 1.646 0 3.292-.548 5.487-.547 2.194-1.642 9.876-2.737 12.619-1.642 4.389-3.832 9.876-7.664 9.876-5.474.548-9.853 1.097-14.233-.549-2.737-1.097-7.116-2.743-9.306-3.292-10.401-4.389-12.044-8.778-12.044-8.778-1.094-1.646-3.832-4.938-4.926-8.779-1.095-4.389-3.285-7.681-3.832-9.876-1.095-2.194-2.738-6.035-4.38-9.876-2.19-4.938-4.927-8.778-7.116-10.424-3.285-2.743-6.022-7.133-12.591-6.035-1.095 0-5.474.548-8.76 3.291-2.189 1.647-2.736 5.487-4.926 8.779-1.095 1.646-3.285 7.133-4.927 11.522-1.095 3.292-1.642 5.486-3.284 6.584-1.095 1.097-2.19 2.194-3.832 1.646l-3.285-1.646c-1.642-1.098-4.927-7.133-7.117-10.973-1.642-3.841-5.474-9.328-7.663-12.07-3.285-4.39-4.927-5.487-9.854-5.487-9.854 0-10.949 5.486-15.328 13.716-2.19 3.841-2.737 9.327-6.57 13.716-1.642 2.195-8.758 12.62-13.685 14.266v75.714-.548c.547-1.098.547-2.195 1.095-2.743 2.19-3.841 6.569-7.682 8.759-12.071 1.095-2.195 2.737-4.389 3.832-7.133.547-1.646 1.095-4.937 2.19-6.583 1.094-2.195 3.284-2.744 5.474-3.292 3.832-.549 6.569 4.938 10.948 7.132 1.642 1.097 10.401 3.841 13.139 4.389 4.379 1.098 8.758 1.646 13.138 2.744 2.19.548 4.38.548 7.116 1.097 2.19 0 10.401.549 10.401 1.097-3.832 2.195-6.569 7.682-8.21 12.071-1.643 4.389-2.738 9.327-4.38 13.168-2.19 4.389-6.57 6.584-6.022 12.07 0 2.195.547 4.389 0 6.584-.547 2.743-1.642 4.389-2.19 7.133-1.095 3.292-2.19 13.716-3.284 16.459l8.758-1.097c1.095-2.195 1.643-12.07 2.19-13.168 1.643-4.938 3.832-8.778 7.117-12.619 3.284-3.841 3.284-8.23 4.927-12.619 2.19-4.938 4.926-8.23 7.664-12.619 4.926-7.681 8.211-18.106 18.065-20.301 1.095 0 7.116 4.39 9.853 7.133 3.285 3.292 6.57 6.584 8.759 10.973 3.832 8.23 7.664 20.301 8.759 26.336.548 3.84 1.095 3.84 3.832 7.132 1.095 1.098 3.285 5.487 4.38 7.133.547 1.646 2.189 5.486 2.737 7.681.547 1.097 2.189 4.938 3.284 8.23h8.212c-3.285-9.327-6.022-18.654-7.117-27.982"/></g><defs><linearGradient id="paint0_linear_306_106" x1="127.705" x2="127.705" y1=".12" y2="257.041" gradientUnits="userSpaceOnUse"><stop stop-color="#F29100"/><stop offset="1" stop-color="#EC670F"/></linearGradient><clipPath id="clip0_306_106"><rect width="256" height="256" fill="#fff" rx="60"/></clipPath></defs></svg>
